-----BEGIN PGP PUBLIC KEY BLOCK-----

mQINBFS6p94BEADaoJNiq0QlaDdLXo8W5GDRyuaJnboMvEAb3DAkGeH2eonkJ3AM
a8qmcvNM1mKnRItQ+KJKkAprEsr+pXpMYR/j89kaRlChWT6FmLcIRQBjQLod8OKJ
G3T1/AQQMkFdIQVls+1hPvFQAJdwvZbViYMPu9CONsNsbODmwnubhz5CfbWEa0Jb
LN8efnDTkdNr6mgd9kg6ITAcOa6d4Qdj00YJY8LTN7VxLkVj+0C2hw3+FRBjhOBD
BoGWKm/hpVlZkSWWFjWWTFHGBJ2osPY7Anmwxc28IHRTojcy8qElcqVaK59e+mVz
YgOB5XLrbJ1Ms4IT5y8hNiglCXM3eJDx8DXXMTQKpAtqWj3nd/Q5L5HbdV3l8fYA
8wx5Pq+5RSWfM4oJWNZLs+kid43mvHmwKnSU2sRKtnnvGqLomKJIruvHH46WSexB
Yl+W/8cTrPph6uKB5WSUa62QK4QI9qV5QrHoRBxoAO/LRQFdndvs00jpd6kMUfho
v5Wquj/BANqaAan+W0/GNp+aOWabhRcfagM64UIeQa47TbNHGcUeGTP4Y52zMQ5R
S2yizLo3L0CchrZtcDqskhwsuOS6MlwmlyCi7qJ9IFciNiontROYY1B/7ouabdO9
AectEiOspypMl36mJqnZxTGhCz1tIoWmhOmwbn+sxCVbUjKQQQInDZExlQARAQAB
tC1DaHJpc3RvcGggUmVpdGVyIDxyZWl0ZXIuY2hyaXN0b3BoQGdtYWlsLmNvbT6J
AlQEEwEIAD4CGwMFCwkIBwMFFQoJCAsFFgIDAQACHgECF4AWIQQOv3gsXVP35fsC
pmdGvXYfekmw7AUCaZl7WAUJFsAG+gAKCRBGvXYfekmw7EKGEACOIVf/D3YxjP+K
AXf788a0W09j+UxaHunPZPyF7wDm5M3lDdRyUw40bh+cfLSf5mX+Dn+YSbYPro+M
Py0yOXq49wPkSicHK8akycdPcQspy1dRrci9xW0Ydk9Qy1E1MCo75dFSs177cnHz
Nk9T0sFyu57h5zwRlTAXtDxU2qmFfny6yGSSw887TR9pHV17ExLMX+oBuli6GV3P
G9vfWMS7xn/VPYzNUsVwhTj91UuD46j/TeFWG27iCzcdCNDnjZAvEHwfNR4eGZa/
h34SA9B6Gy5fu5Y4aGD3y5l8/qMU/weJjr5cNr62t4X5WExjpui3rnzEvbWpfmvp
3/1jscGGVZhO6qTkqLiMcizUg7uQZSjvEM1vuN9nsnf5TUSEnzxWpkOMN6twOYCm
BFJmDb10lCJ0BmBz/pZw6SffBwz+2Disp9yZHmWhMbY9Rk2XYo0a7QQHzl0tg9mG
m7aaIMkUVczqrxJreJwkZIoaOdQ7oRwZLfLqHRbkcsSiTJD1RH/oJoL1uS1xyijx
Oo0QVUg4dUQF9yn+ONVPoujjRlNxT55D5S53Fax1XAjQj4LVLRI4/i7GS/b0JUFm
SkiCCJics1EtX/Xedzte7WZDVWO8J+Px20TDL3WYPv4rqxKMrxgVL/O1I9qZPUa5
rtuMqwdMkqw86TKQGKT0sI6Ci3OIC7kCDQRUuqjDARAAwql724kkjS9zM6djgoak
KVM75tPO9zAzwQNa/GFN8krSIW5UCnweaoLiDGQ8u/Szhqlrn6HZMuqlJ4933oXU
vc/m0d3A6cKjV+nXbvKupQrrwns29j5jsyvdQiry+cOJ7O36GGFbEXlrFgAdCo7J
rJtXY3zVoLv7/2L+2HG0fhnkAakSeUsQAAhD3Ypc3XnKnckWwP5FrWcl6jI+N4D0
B3FKgp9r+qI//QONztz32y0kMsySK9SBsSB9rSxL8umXayaBcANMXyZu849yBhau
zyRaJ9LeJ+NG2+qzE6lwnOJ8lLMIivgaf4yHtkPsvabSa2T13a5TwTUMORxmpu7c
MgGy/YrkJVWz6yQNqvJ8OaoFqhtKmEu6t9cZdhjFws9KqzOVXWmqkIERdZqexW4d
cCmmaW54D2UdBOsXz8+WpP2CJlGdCuha9ZTK3UywWAWSVwifsth/efnGmCLcbyBj
8vNwuzGROAbUxC21St5J4uySbxQyfWPj/abzKF7gg9VobNFE/JqHgocU8zBPw3wl
sZgWtROVEl4TTVMoZZIu1mcRPGy4vFDUq9D5l1ik6xgdwEfK5Q7Sy3H9Sqimhhm1
FDmJbxugBJ/3Rn95KBxQeygr6T84Kf7/aW8ECm1M7mtjOzXhhXUr6UkCW8nEiIE6
mvczkSRkwLAWaZWT3DnBZAkAEQEAAYkEWwQYAQgAJgIbAhYhBA6/eCxdU/fl+wKm
Z0a9dh96SbDsBQJpmXuMBQkWwAZJAinBXSAEGQEIAAYFAlS6qMMACgkQWmLQyrYm
SWQNzg//awrtKhhsLafVuiVTyybj7JpAzt6lzsZ2x/eIfPBA93g9BvPezHYIa452
5QQ7xkjeq/Hi6+M5GGiijyTmMcApalVeinPTrPdum9C/LGaE3ZNHos8gyBkKn2HJ
B/OyOiMKMeR90tO2eeOhJPYL9JwpYPdOvXVv9RanYcRuXfpFr9C1VbN3EARi+YAJ
jox6Ii+qPlIoJDknCwqpcBS+zgAdditPbrdMWK+yS00uxBZKqAB7ayvL7QyiLQSZ
oQx69lNrcRvN6IcG432i0NIuYX1ykwZ3bcGkdxS9KLfyNN+Ug1TOcTGuofj61gm3
FRaUjmslp5tTCpkSwIvFdLSUNm6bdvfdJTSMsjv4czIrvUT8cC2h7w/5V0IFHm0D
kP0cv2Fdd4yX5Q+mfMIVgxqIozzCCYqgIGUx6bHRTrlFQzjHWJ6zSwtLkAfJSymz
xc1MpVzIk5g89RywbXsJaDJUftP1cNNcHBLerlfvRJMIIQKeTYOaMvLySpqSJ7e6
3lRiGxIWstIPu/W/aR7se59tMtG8tnfpqu6mAD8O93Oe09jIE+vneZHu+aBqO++C
tYRjdKMhzSwUQIg4JqFOPuMBDUYhxl09vrQNW6mAJnUQWlT1molC4oTLSms4P/R3
tplRqPH6MZl/p6yNnbqMCKV5+0oOliyvKV3rYnnfex8vDMZfZ0kJEEa9dh96SbDs
LcoP/3Ww7KZVJUnT6o/UpB7kYBx/Cetl0W3GLX3QlCB4emYEa3bGfeTBunkBb0AZ
CzkoR3eWvBaiR3YXwUa/s/5jYq+x6IrOABlQ6pgiVHeVOljCWmCSwkppHmAF/13s
8bac5+71AnTMWPLPPlzredphIQNDNHSeZqWTs3nYMLA0wKLlEUNwIwkLZ10aKVOn
NB73U4vU3CUFtqOJhvwpVk/JwHbQDitoIjFrTy2IkjnrJf46jtvumCVd12te8uOe
WSUFnnAoHicV3Fivw5pm58o4cx9lbD/nThRcDY07hUNd55S5BvQx9CviaRQqiClB
b7uBqkkbXaR4U5DCEkYgYzC+ngq/+SOfhccJXNzbeD6kny8BEhmC+LKz1sQddvxw
k55GMMkO6agGWCOYnKwNLuipbhtbQnh5ZXZV3ShIcq3O94jj14l8bZjPxkHYMroW
VPPjb1OPZpU1BgzKH+JHOZ/GwEDGtIzCsXTeG7UEH/ckPCd5IFvBhYMXnF+hXjfb
i8CT/8CIYPRQ5EHhKy7q4tfXfJFA+lWAr7GKICDyId3WmsCHnOWLaSA/H9nCLC+o
3lD31+tJfMHd4K9CjoM9Hbmdyxmc6iSBU+1bxZwH/UbfxOiRII/4P6JcHAwq9Zko
KPyiQuMvR/RXDNklwgBpF1Ln0QwnARNM/ski17/mLJu0qGoPuQINBFS6p94BEACu
lv1Fx624JRwEWNsUaeowwSLqW/jX9sFaFLgnMiIZXJZnZY2gi60QeWnDv0mkWkKe
O43rWoMPpKBA7WiaS1Pxbqjmu6nuRNy7YU3/jHql01m2VTv4MKxeRLTqG1OkDa4m
Ll8AAjhGgjGlf0ASAMcozGeuiv+GcXdxbL4ZoSTivHh7Rv/eHBk2/U1opLy0tz9J
tuEptbkF+4oDzE6inJTWotH4zPFqe99iykQukOua6S9HjoC2YigrUPUwB1amfIcU
eT7+4avgkBDwFHcgKJbHnaQh3E/rP5uEnxRTlp2hJBG7etD7DN1dEQ7gyhe2S+qI
NmFg/gCkzPV+1w179BH1V4JvdZ54Qmds8keTvCQ7+EFh3BqFvz97q2I/LvylQ89c
FTh39gVZeYR0kW/8KfBC8Fj6xKZJ4xDIG53WbZ4yM/lAxwYbcClpyv55rhy3xExn
S0bc/eN2+m1WkkU4qX7XjaVskldumBk7YMapPg18InZrGFKCiNVlNPVFjT9pLBxE
Ma/VRYWCtV+0ww4jqScQACEVkhWOLzQInG9lHJHro7F7LS+Goop+eoKHp85nZ4yQ
m0NNgUryYa1Y/hl/sAWreASwqcpIXrxASkYsUHQH90/8d1fS7twwNUKCnqQjngSI
aK6pSSqXrijmton9WouZLWa5zDFBfG9sEOTt6dS+7QARAQABiQI8BBgBCAAmAhsM
FiEEDr94LF1T9+X7AqZnRr12H3pJsOwFAmmZe3IFCRbABxQACgkQRr12H3pJsOw3
oA//dLx+ef0tUNSIpYbPPT54B5EYxtYlmTttcF8VJphsQ9HXDnlIMc/sxsq+aK/x
IoQc9pFahYB9KKQ30zRLFtYBLZnJyererYvRvZyIQTEDFcUz5nQhWZIgWotAZZWy
1ALsAF16aDhcVCtdLMwtwwzg60QVxWF/lOJ5M/3fha1E72Z67pWoApp1mwyUHzUv
r32KPNkddwVtNX3jhlYEVahTPpc4aP5AyzbQ7fgPPkGxpxPQ//0cZqUWnIFJ0Tab
VHb9JpmaeDaUcLjh3o/I8zfM5xZGLMggCZb7+BE6QFOgxxw50hYu6FHlmzVzrIhf
rMywZDCx3Sl88KdYol2iACmqGBipJ9qHfwbAw6YTOg3m3Y7Arz83izDIsEsd4cYP
x8TIQ4yybO2DKa2k9hLmrV9mWInyrS4Pogt0SyEsGfGF36KfqPOMQJZEqG2Aynk4
YCtB7i70V8gmeC9zPAX6XymVRH/LCF9iz+AFQ54zPro26N8+F8h2Z8XWVa1N5q4W
b/hdtmcPXI9xAfY+YVx2+TpnN7v72o5uV5uXedmmA+9p45Bz35ElF+voRF6HEzWV
QB2ZLP5IFn/FdTGalb0xmmUklIQ0DXx+Mni6Mk6YqZT6xJA9zrhdFL3wG5PwcFPN
QWPREgRQ3NWHafULHtqEJdTGpqrYLF5eOxnF5Ml9UjItY8M=
=Od+c
-----END PGP PUBLIC KEY BLOCK-----
